img/icons/bear.svg

<svg width="39" height="39" viewBox="0 0 39 39" fill="none" xmlns="http://www.w3.org/2000/svg">
<rect width="39" height="39" fill="white"/>
<path d="M18.7217 8.23392C18.2911 8.24151 17.8375 8.3858 17.5145 8.6592C16.9378 9.15283 16.3612 9.66165 16.3765 10.33C16.3919 10.9983 16.7764 11.378 16.7764 11.378C16.7764 11.378 17.0378 11.5754 16.7764 11.7729C16.5149 11.9703 13.447 13.8993 13.6084 17.8787C13.6084 17.8787 13.6853 18.9115 13.57 20.0203C13.4854 20.8101 13.7622 21.7746 13.9314 22.253C13.9391 22.2606 14.016 22.4581 13.8391 22.3366C13.0087 21.8202 12.3244 21.0531 11.7554 20.0887C11.2325 19.1546 10.9326 18.0686 10.9326 16.9142C10.9326 14.4689 12.2782 12.3349 14.262 11.2337C11.5401 11.9855 9.5332 14.4992 9.5332 17.4914C9.5332 17.7192 9.54089 17.9471 9.56396 18.1673C9.58703 18.6837 9.64085 19.5039 9.78694 19.8304C10.0099 20.3241 9.98686 21.3873 9.98686 21.562C9.98686 21.7366 10.0484 27.5691 13.5392 27.5539C13.5392 27.5539 15.2001 27.5918 15.2155 26.9235C15.2232 26.3312 15.054 26.2704 14.9002 25.9287C14.7541 25.6021 14.6388 25.5869 14.7234 24.5389C14.7234 24.5389 14.7311 24.3263 14.8079 24.3263C14.8848 24.3263 15.8614 27.1818 17.1147 28.6778C18.368 30.1739 19.629 30.3334 20.5825 30.3334C20.5825 30.3334 22.3741 30.3334 22.3741 29.4449C22.3741 28.5563 21.559 28.9133 21.559 26.0958C21.559 23.2783 22.9354 23.415 23.0968 24.1061C23.2583 24.7971 23.3967 25.3439 23.1199 27.1969C22.8354 29.05 23.5966 29.2702 24.2963 29.2702C24.996 29.2702 28.6638 29.3841 29.302 19.0255C29.302 19.0255 29.3789 17.3547 28.8252 15.9118C28.8252 15.9118 29.0636 18.6685 27.3259 20.1494C25.5881 21.6303 24.5962 21.4101 24.5962 21.4101C24.5962 21.4101 23.7581 21.3493 23.4198 21.767C23.0815 22.1771 23.143 22.4733 22.4202 22.2606C21.7051 22.0404 21.6974 21.8657 21.0438 21.9493C20.3903 22.0328 19.9904 22.1087 19.729 21.5771C19.4676 21.0455 19.1831 20.7038 18.6448 20.6051C18.1066 20.5063 15.7383 19.3976 15.7998 16.2611C15.8614 13.3449 17.1993 12.3424 17.1993 12.3424C17.1993 12.3424 17.4223 12.107 17.6375 12.2057C17.8605 12.3045 18.2142 12.3273 18.6371 11.9475C19.06 11.5678 19.3368 11.2792 20.0904 11.021C20.0904 11.021 20.6132 10.9451 20.5902 10.4287C20.5671 9.90467 20.1442 8.78071 19.606 8.44656C19.3676 8.30227 19.0523 8.22632 18.7217 8.23392ZM20.5287 22.3366C20.6517 22.329 20.8208 22.4125 21.0054 22.4809C21.2745 22.5796 21.8819 22.534 22.1203 22.5188C22.3587 22.5037 22.5201 22.6024 22.3279 22.8302C22.0665 23.1416 21.7512 23.1264 21.3514 23.1568C20.9516 23.1871 20.5287 22.7998 20.5287 22.7998C20.5056 22.7619 20.3134 22.5568 20.4056 22.4125C20.4287 22.3594 20.4748 22.3366 20.5287 22.3366ZM18.491 16.0485C18.9524 15.4865 19.2061 15.4181 19.606 15.4181C20.0058 15.4181 20.5594 15.6688 20.7209 16.2839C20.8977 16.9522 20.99 17.0585 20.3441 17.8028C19.8828 18.342 19.0447 19.5115 18.2065 18.7672C17.3761 18.023 17.6837 17.0281 18.491 16.0485ZM25.9803 17.0889C25.7111 16.4206 25.4882 16.2763 25.1037 16.1548C24.7269 16.0333 24.1195 16.1168 23.7735 16.6484C23.3967 17.2332 23.266 17.2864 23.6581 18.1977C23.9349 18.8432 24.3886 20.2329 25.419 19.7621C26.4493 19.3064 26.457 18.266 25.9803 17.0889ZM21.5667 21.486C21.782 21.1595 22.2741 21.0455 22.5663 21.0379C22.9431 21.0228 22.9354 20.7038 22.9354 20.7038C22.9354 20.7038 22.9584 20.3772 21.5975 20.2481C20.2365 20.119 20.198 20.4608 20.198 20.4608C20.198 20.4608 20.1365 20.7797 20.5056 20.8557C20.7901 20.9164 21.2514 21.1215 21.4052 21.4784C21.436 21.5695 21.5206 21.5695 21.5667 21.486ZM27.9948 13.4057C27.7641 13.4816 27.4104 13.4588 27.0337 13.0411C26.6569 12.6234 26.4185 12.2969 25.6881 11.9627C25.6881 11.9627 25.1806 11.826 25.2575 11.3172C25.3344 10.8084 25.8803 9.73759 26.4493 9.4642C27.0183 9.1908 27.9871 9.35788 28.51 9.91226C29.0328 10.4666 29.548 11.0362 29.4557 11.7045C29.3635 12.3652 28.9406 12.6994 28.9406 12.6994H28.9483C28.7407 12.9576 27.9948 13.4057 27.9948 13.4057Z" fill="black"/>
</svg>

<svg width="39" height="39" fill="none" xmlns="http://www.w3.org/2000/svg"><path fill="#fff" d="M0 0h39v39H0z"/><path d="M18.722 8.234c-.43.008-.885.152-1.207.425-.577.494-1.154 1.003-1.139 1.671.016.668.4 1.048.4 1.048s.262.197 0 .395c-.261.197-3.329 2.126-3.168 6.106 0 0 .077 1.032-.038 2.141-.085.79.192 1.755.361 2.233.008.008.085.205-.092.084-.83-.517-1.515-1.284-2.084-2.248a6.488 6.488 0 0 1-.822-3.175 6.49 6.49 0 0 1 3.329-5.68 6.481 6.481 0 0 0-4.729 6.257c0 .228.008.456.031.676.023.517.077 1.337.223 1.663.223.494.2 1.557.2 1.732 0 .175.061 6.007 3.552 5.992 0 0 1.661.038 1.677-.63.007-.593-.162-.654-.316-.995-.146-.327-.261-.342-.177-1.39 0 0 .008-.213.085-.213.077 0 1.053 2.856 2.307 4.352 1.253 1.496 2.514 1.655 3.468 1.655 0 0 1.791 0 1.791-.888 0-.889-.815-.532-.815-3.35 0-2.817 1.376-2.68 1.538-1.989.161.691.3 1.238.023 3.09-.285 1.854.477 2.074 1.176 2.074.7 0 4.368.114 5.006-10.244 0 0 .077-1.671-.477-3.114 0 0 .239 2.757-1.5 4.237-1.737 1.481-2.729 1.261-2.729 1.261s-.838-.06-1.176.357c-.339.41-.277.706-1 .494-.715-.22-.723-.395-1.376-.312-.654.084-1.054.16-1.315-.372-.261-.532-.546-.873-1.084-.972-.538-.099-2.907-1.207-2.845-4.344.061-2.916 1.4-3.919 1.4-3.919s.222-.235.438-.136c.222.099.576.121 1-.258.422-.38.699-.669 1.452-.927 0 0 .523-.076.5-.592-.023-.524-.446-1.648-.984-1.982a1.658 1.658 0 0 0-.884-.213zm1.807 14.103c.123-.008.292.076.476.144.27.099.877.053 1.115.038.239-.015.4.083.208.311-.261.312-.577.296-.977.327-.4.03-.822-.357-.822-.357-.023-.038-.216-.243-.123-.387.023-.054.069-.076.123-.076zm-2.038-6.288c.461-.563.715-.63 1.115-.63s.953.25 1.115.865c.177.668.269.774-.377 1.519-.461.539-1.3 1.709-2.138.964-.83-.744-.522-1.739.285-2.718zm7.49 1.04c-.27-.668-.493-.813-.877-.934a1.184 1.184 0 0 0-1.33.493c-.377.585-.508.638-.116 1.55.277.645.73 2.035 1.761 1.564 1.03-.456 1.038-1.496.561-2.673zm-4.414 4.397c.215-.326.707-.44 1-.448.376-.015.368-.334.368-.334s.023-.327-1.337-.456c-1.361-.129-1.4.213-1.4.213s-.061.319.308.395c.284.06.745.265.9.622.03.091.115.091.16.008zm6.428-8.08c-.23.076-.585.053-.961-.365-.377-.418-.615-.744-1.346-1.078 0 0-.507-.137-.43-.646.076-.509.622-1.58 1.191-1.853.57-.273 1.538-.106 2.061.448.523.555 1.038 1.124.946 1.792-.093.661-.515.995-.515.995h.007c-.207.259-.953.707-.953.707z" fill="#000"/></svg>
